X:1
T:[ID 2-40b]
T:[ID 2-40b]
T:Bezeichnung standardisiert: Menuett Menuet
T:Urheber unbekannt Erstbeleg: 1767 (Datum in der schriftlichen Quelle) Datum in der hier transkribierten schriftlichen Quelle: 1776 - 1791
C:Urheber unbekannt
C:Erstbeleg: 1767 (Datum in der schriftlichen Quelle)
C:Datum in der hier transkribierten schriftlichen Quelle: 1776 - 1791
%%score 1 2
L:1/8
M:3/4
K:C
V:1 treble 
V:2 treble nm="Secondo"
V:1
 ce g2 (3fga | g2 f2 e2 | (3def edcB |{B} c4 d2 | ec e2 g2 | ^fd f2 a2 | gedcBA |{A} G6 :: %8
 GB d2 (3cde | d2 c2 B2 | Gd f2 e2 | e4 d2 | GB (3cBc (3cBc | Ec (3cBc (3cBc | (3AGF E2 D2 | %15
{D} C6 :| %16
V:2
 !fermata!Gc e2 (3def | e2 d2 c2 | (3Bcd cEFD |{D} E4 G2 | cG c2 e2 | dB d2 ^f2 | (3gfe dcBA | %7
{A} B6 :: B,G B2 (3ABc | B2 A2 G2 | Ge d2 c2 | c4 B2 |"^O)" CE (3EDE (3EDE |"^O)" CE (3EDE (3EDE | %14
 (3cBA GFED |{D} E6 :| %16

